T: Kilfenora, The
M: 4/4
L: 1/8
K: Dmaj
A.) ~ | A>dc>B (3ABA (3GFE | (3DED C>E D2 ||B.) ~ | (3ded c>B (3ABA (3GFE | (3DED C>E D2 ||~ | A>df>d a>df>d | A>ce>c a>ce>c | A>dc>B (3ABA (3GFE | (3DED C>E D2 ||(3ded c>B (3ABA (3GFE | (3DED C>E D2 ||
